images/xq.svg

<svg class="icon" viewBox="0 0 1408 1024" xmlns="http://www.w3.org/2000/svg" width="275" height="200"><path d="M576 0h64v64h-64z"/><path d="M576 64h64v64h-64z" fill="#E0B6FF"/><path d="M1024 192h64v64h-64zM128 768h64v64h-64zm449.882 192h64v64h-64z"/><path d="M576 896h64v64h-64z" fill="#7000C3"/><path d="M576 832h64v64h-64z" fill="#B652FF"/><path d="M448 64h64v64h-64zm-64 64h64v64h-64z"/><path d="M448 128h64v64h-64zm64 0h64v64h-64z" fill="#E0B6FF"/><path d="M576 128h64v64h-64zm64 0h64v64h-64z" fill="#CA82FF"/><path d="M704 128h64v64h-64zm64 0h64v64h-64z" fill="#9DCDF4"/><path d="M832 128h64v64h-64zm64 0h64v64h-64z" fill="#CA82FF"/><path d="M320 192h64v64h-64z"/><path d="M384 192h64v64h-64z" fill="#E0B6FF"/><path d="M448 192h64v64h-64zm64 0h64v64h-64z" fill="#CA82FF"/><path d="M576 192h64v64h-64z" fill="#ED91DC"/><path d="M640 192h64v64h-64zm64 0h64v64h-64z" fill="#9DCDF4"/><path d="M768 192h64v64h-64zm64 0h64v64h-64zm64 0h64v64h-64z" fill="#B652FF"/><path d="M960 192h64v64h-64z" fill="#EA6BD2"/><path d="M256 256h64v64h-64z"/><path d="M320 256h64v64h-64z" fill="#E0B6FF"/><path d="M384 256h64v64h-64z" fill="#CA82FF"/><path d="M448 256h64v64h-64zm64 0h64v64h-64z" fill="#ED91DC"/><path d="M576 256h64v64h-64zm64 0h64v64h-64zm64 0h64v64h-64z" fill="#6BB0EA"/><path d="M768 256h64v64h-64zm64 0h64v64h-64z" fill="#B652FF"/><path d="M896 256h64v64h-64z" fill="#EA6BD2"/><path d="M960 256h64v64h-64zm64 0h64v64h-64z" fill="#B652FF"/><path d="M1088 256h64v64h-64z"/><path d="M1152 256h64v64h-64z" fill="#FFDE00"/><path d="M1216 256h64v64h-64z" fill="#EDA900"/><path d="M1088 640h64v64h-64zm64-128h64v64h-64zm192-192h64v64h-64z"/><path d="M1280 320h64v64h-64z" fill="#EDA900"/><path d="M1280 256h64v64h-64zM256 320h64v64h-64z"/><path d="M320 320h64v64h-64z" fill="#CA82FF"/><path d="M384 320h64v64h-64z" fill="#ED91DC"/><path d="M448 320h64v64h-64zm64 0h64v64h-64z" fill="#EA6BD2"/><path d="M576 320h64v64h-64z" fill="#6BB0EA"/><path d="M640 320h64v64h-64zm64 0h64v64h-64zm64 0h64v64h-64z" fill="#B652FF"/><path d="M832 320h64v64h-64z" fill="#ED91DC"/><path d="M896 320h64v64h-64z" fill="#EA6BD2"/><path d="M960 320h64v64h-64zm64 0h64v64h-64z" fill="#B652FF"/><path d="M1088 320h64v64h-64z" fill="#6BB0EA"/><path d="M1152 320h64v64h-64z"/><path d="M1216 320h64v64h-64z" fill="#FFDE00"/><path d="M1088 704h64v64h-64zm64-128h64v64h-64zm192-192h64v64h-64z"/><path d="M1280 384h64v64h-64z" fill="#EDA900"/><path d="M192 384h64v64h-64z"/><path d="M256 384h64v64h-64z" fill="#CA82FF"/><path d="M320 384h64v64h-64zm64 0h64v64h-64z" fill="#ED91DC"/><path d="M448 384h64v64h-64z" fill="#EA6BD2"/><path d="M512 384h64v64h-64z" fill="#6BB0EA"/><path d="M576 384h64v64h-64zm64 0h64v64h-64zm64 0h64v64h-64z" fill="#B652FF"/><path d="M768 384h64v64h-64z" fill="#ED91DC"/><path d="M832 384h64v64h-64z" fill="#EA6BD2"/><path d="M896 384h64v64h-64z" fill="#B652FF"/><path d="M960 384h64v64h-64z" fill="#6BB0EA"/><path d="M1024 384h64v64h-64zm64 0h64v64h-64z"/><path d="M1152 384h64v64h-64zm64 0h64v64h-64z" fill="#FFDE00"/><path d="M128 448h64v64h-64zm64 0h64v64h-64z"/><path d="M256 448h64v64h-64z" fill="#CA82FF"/><path d="M320 448h64v64h-64z" fill="#EA6BD2"/><path d="M384 448h64v64h-64z" fill="#9DCDF4"/><path d="M448 448h64v64h-64zm64 0h64v64h-64zm64 0h64v64h-64zm64 0h64v64h-64z" fill="#B652FF"/><path d="M704 448h64v64h-64zm64 0h64v64h-64z" fill="#EA6BD2"/><path d="M832 448h64v64h-64zm64 0h64v64h-64zm64 0h64v64h-64z"/><path d="M1024 448h64v64h-64zm64 0h64v64h-64z" fill="#FFDE00"/><path d="M1152 448h64v64h-64z" fill="#EDA900"/><path d="M64 512h64v64H64z"/><path d="M128 512h64v64h-64z" fill="#FFDE00"/><path d="M192 512h64v64h-64z"/><path d="M256 512h64v64h-64z" fill="#ED91DC"/><path d="M320 512h64v64h-64z" fill="#B652FF"/><path d="M384 512h64v64h-64z" fill="#9DCDF4"/><path d="M448 512h64v64h-64z" fill="#B652FF"/><path d="M512 512h64v64h-64zm64 0h64v64h-64z" fill="#EA6BD2"/><path d="M640 512h64v64h-64zm64 0h64v64h-64zm64 0h64v64h-64z"/><path d="M832 512h64v64h-64z" fill="#FFDE00"/><path d="M896 512h64v64h-64zm64 0h64v64h-64zm64 0h64v64h-64z" fill="#EDA900"/><path d="M1088 512h64v64h-64zM0 576h64v64H0z"/><path d="M64 576h64v64H64zm64 0h64v64h-64z" fill="#FFDE00"/><path d="M192 576h64v64h-64z"/><path d="M256 576h64v64h-64z" fill="#B652FF"/><path d="M320 576h64v64h-64z" fill="#6BB0EA"/><path d="M384 576h64v64h-64z" fill="#B652FF"/><path d="M448 576h64v64h-64zm64 0h64v64h-64zm64 0h64v64h-64z"/><path d="M640 576h64v64h-64zm64 0h64v64h-64z" fill="#FFDE00"/><path d="M768 576h64v64h-64zm64 0h64v64h-64z" fill="#EDA900"/><path d="M896 576h64v64h-64zm64 0h64v64h-64zm64 0h64v64h-64z"/><path d="M1088 576h64v64h-64z" fill="#7000C3"/><path d="M0 640h64v64H0z"/><path d="M64 640h64v64H64zm64 0h64v64h-64zm64 0h64v64h-64z" fill="#FFDE00"/><path d="M256 640h64v64h-64zm64 0h64v64h-64zm64 0h64v64h-64z"/><path d="M448 640h64v64h-64zm64 0h64v64h-64z" fill="#EDA900"/><path d="M576 640h64v64h-64z" fill="#FFDE00"/><path d="M640 640h64v64h-64z" fill="#488ECA"/><path d="M704 640h64v64h-64zm64 0h64v64h-64zm64 0h64v64h-64z"/><path d="M896 640h64v64h-64z" fill="#C65BB2"/><path d="M960 640h64v64h-64z" fill="#488ECA"/><path d="M1024 640h64v64h-64z" fill="#7000C3"/><path d="M64 704h64v64H64z"/><path d="M128 704h64v64h-64z" fill="#FFDE00"/><path d="M192 704h64v64h-64zm64 0h64v64h-64zm64 0h64v64h-64zm64 0h64v64h-64z" fill="#EDA900"/><path d="M384 768h64v64h-64z"/><path d="M448 704h64v64h-64z" fill="#EDA900"/><path d="M448 768h64v64h-64zm64-64h64v64h-64z"/><path d="M512 768h64v64h-64z" fill="#C65BB2"/><path d="M576 704h64v64h-64z"/><path d="M576 768h64v64h-64z" fill="#C65BB2"/><path d="M640 704h64v64h-64z"/><path d="M640 768h64v64h-64z" fill="#488ECA"/><path d="M704 704h64v64h-64z" fill="#B652FF"/><path d="M704 768h64v64h-64zm64-64h64v64h-64zm0 64h64v64h-64z" fill="#488ECA"/><path d="M832 704h64v64h-64z" fill="#C65BB2"/><path d="M832 768h64v64h-64z" fill="#7000C3"/><path d="M896 704h64v64h-64z" fill="#B652FF"/><path d="M960 704h64v64h-64zm64 0h64v64h-64zm-128 64h64v64h-64zm64 0h64v64h-64z" fill="#7000C3"/><path d="M640 0h64v64h-64z"/><path d="M640 64h64v64h-64z" fill="#E0B6FF"/><path d="M1088 192h64v64h-64zM192 768h64v64h-64zm449.882 192h64v64h-64z"/><path d="M640 896h64v64h-64z" fill="#7000C3"/><path d="M640 832h64v64h-64z" fill="#C65BB2"/><path d="M512 64h64v64h-64zM704 0h64v64h-64z"/><path d="M704 64h64v64h-64z" fill="#CA82FF"/><path d="M832 64h64v64h-64zm320 128h64v64h-64zm64 256h64v64h-64zM256 768h64v64h-64zm449.882 192h64v64h-64z"/><path d="M704 896h64v64h-64z" fill="#7000C3"/><path d="M704 832h64v64h-64z" fill="#488ECA"/><path d="M832 896h64v64h-64z"/><path d="M832 832h64v64h-64z" fill="#7000C3"/><path d="M448 896h64v64h-64z"/><path d="M448 832h64v64h-64z" fill="#7000C3"/><path d="M768 0h64v64h-64z"/><path d="M768 64h64v64h-64z" fill="#CA82FF"/><path d="M896 64h64v64h-64zm64 64h64v64h-64zm256 64h64v64h-64zm64 256h64v64h-64zM320 768h64v64h-64zm449.882 192h64v64h-64z"/><path d="M768 896h64v64h-64zm0-64h64v64h-64z" fill="#7000C3"/><path d="M896 896h64v64h-64z"/><path d="M896 832h64v64h-64z" fill="#7000C3"/><path d="M960 832h64v64h-64zm64-64h64v64h-64zM512 896h64v64h-64z"/><path d="M512 832h64v64h-64z" fill="#B652FF"/><path d="M384 832h64v64h-64z"/></svg>

<?xml version="1.0" standalone="no"?><!DOCTYPE svg PUBLIC "-//W3C//DTD SVG 1.1//EN" "http://www.w3.org/Graphics/SVG/1.1/DTD/svg11.dtd"><svg t="1734768671670" class="icon" viewBox="0 0 1408 1024" version="1.1" xmlns="http://www.w3.org/2000/svg" p-id="3421" xmlns:xlink="http://www.w3.org/1999/xlink" width="275" height="200"><path d="M576 0H640v64h-64z" fill="#000000" p-id="3422"></path><path d="M576 64H640V128h-64z" fill="#E0B6FF" p-id="3423"></path><path d="M1024 192h64V256H1024zM128 768h64v64H128zM577.882353 960h64V1024h-64z" fill="#000000" p-id="3424"></path><path d="M576 896H640v64h-64z" fill="#7000C3" p-id="3425"></path><path d="M576 832H640V896h-64z" fill="#B652FF" p-id="3426"></path><path d="M448 64H512V128h-64zM384 128h64v64H384z" fill="#000000" p-id="3427"></path><path d="M448 128H512v64h-64zM512 128h64v64H512z" fill="#E0B6FF" p-id="3428"></path><path d="M576 128H640v64h-64zM640 128h64v64H640z" fill="#CA82FF" p-id="3429"></path><path d="M704 128H768v64h-64zM768 128h64v64H768z" fill="#9DCDF4" p-id="3430"></path><path d="M832 128H896v64h-64zM896 128h64v64H896z" fill="#CA82FF" p-id="3431"></path><path d="M320 192H384V256h-64z" fill="#000000" p-id="3432"></path><path d="M384 192h64V256H384z" fill="#E0B6FF" p-id="3433"></path><path d="M448 192H512V256h-64zM512 192h64V256H512z" fill="#CA82FF" p-id="3434"></path><path d="M576 192H640V256h-64z" fill="#ED91DC" p-id="3435"></path><path d="M640 192h64V256H640zM704 192H768V256h-64z" fill="#9DCDF4" p-id="3436"></path><path d="M768 192h64V256H768zM832 192H896V256h-64zM896 192h64V256H896z" fill="#B652FF" p-id="3437"></path><path d="M960 192H1024V256h-64z" fill="#EA6BD2" p-id="3438"></path><path d="M256 256h64v64H256z" fill="#000000" p-id="3439"></path><path d="M320 256H384v64h-64z" fill="#E0B6FF" p-id="3440"></path><path d="M384 256h64v64H384z" fill="#CA82FF" p-id="3441"></path><path d="M448 256H512v64h-64zM512 256h64v64H512z" fill="#ED91DC" p-id="3442"></path><path d="M576 256H640v64h-64zM640 256h64v64H640zM704 256H768v64h-64z" fill="#6BB0EA" p-id="3443"></path><path d="M768 256h64v64H768zM832 256H896v64h-64z" fill="#B652FF" p-id="3444"></path><path d="M896 256h64v64H896z" fill="#EA6BD2" p-id="3445"></path><path d="M960 256H1024v64h-64zM1024 256h64v64H1024z" fill="#B652FF" p-id="3446"></path><path d="M1088 256H1152v64h-64z" fill="#000000" p-id="3447"></path><path d="M1152 256h64v64H1152z" fill="#FFDE00" p-id="3448"></path><path d="M1216 256H1280v64h-64z" fill="#EDA900" p-id="3449"></path><path d="M1088 640H1152v64h-64zM1152 512h64v64H1152zM1344 320H1408V384h-64z" fill="#000000" p-id="3450"></path><path d="M1280 320h64V384H1280z" fill="#EDA900" p-id="3451"></path><path d="M1280 256h64v64H1280zM256 320h64V384H256z" fill="#000000" p-id="3452"></path><path d="M320 320H384V384h-64z" fill="#CA82FF" p-id="3453"></path><path d="M384 320h64V384H384z" fill="#ED91DC" p-id="3454"></path><path d="M448 320H512V384h-64zM512 320h64V384H512z" fill="#EA6BD2" p-id="3455"></path><path d="M576 320H640V384h-64z" fill="#6BB0EA" p-id="3456"></path><path d="M640 320h64V384H640zM704 320H768V384h-64zM768 320h64V384H768z" fill="#B652FF" p-id="3457"></path><path d="M832 320H896V384h-64z" fill="#ED91DC" p-id="3458"></path><path d="M896 320h64V384H896z" fill="#EA6BD2" p-id="3459"></path><path d="M960 320H1024V384h-64zM1024 320h64V384H1024z" fill="#B652FF" p-id="3460"></path><path d="M1088 320H1152V384h-64z" fill="#6BB0EA" p-id="3461"></path><path d="M1152 320h64V384H1152z" fill="#000000" p-id="3462"></path><path d="M1216 320H1280V384h-64z" fill="#FFDE00" p-id="3463"></path><path d="M1088 704H1152V768h-64zM1152 576h64V640H1152zM1344 384H1408v64h-64z" fill="#000000" p-id="3464"></path><path d="M1280 384h64v64H1280z" fill="#EDA900" p-id="3465"></path><path d="M192 384H256v64h-64z" fill="#000000" p-id="3466"></path><path d="M256 384h64v64H256z" fill="#CA82FF" p-id="3467"></path><path d="M320 384H384v64h-64zM384 384h64v64H384z" fill="#ED91DC" p-id="3468"></path><path d="M448 384H512v64h-64z" fill="#EA6BD2" p-id="3469"></path><path d="M512 384h64v64H512z" fill="#6BB0EA" p-id="3470"></path><path d="M576 384H640v64h-64zM640 384h64v64H640zM704 384H768v64h-64z" fill="#B652FF" p-id="3471"></path><path d="M768 384h64v64H768z" fill="#ED91DC" p-id="3472"></path><path d="M832 384H896v64h-64z" fill="#EA6BD2" p-id="3473"></path><path d="M896 384h64v64H896z" fill="#B652FF" p-id="3474"></path><path d="M960 384H1024v64h-64z" fill="#6BB0EA" p-id="3475"></path><path d="M1024 384h64v64H1024zM1088 384H1152v64h-64z" fill="#000000" p-id="3476"></path><path d="M1152 384h64v64H1152zM1216 384H1280v64h-64z" fill="#FFDE00" p-id="3477"></path><path d="M128 448h64V512H128zM192 448H256V512h-64z" fill="#000000" p-id="3478"></path><path d="M256 448h64V512H256z" fill="#CA82FF" p-id="3479"></path><path d="M320 448H384V512h-64z" fill="#EA6BD2" p-id="3480"></path><path d="M384 448h64V512H384z" fill="#9DCDF4" p-id="3481"></path><path d="M448 448H512V512h-64zM512 448h64V512H512zM576 448H640V512h-64zM640 448h64V512H640z" fill="#B652FF" p-id="3482"></path><path d="M704 448H768V512h-64zM768 448h64V512H768z" fill="#EA6BD2" p-id="3483"></path><path d="M832 448H896V512h-64zM896 448h64V512H896zM960 448H1024V512h-64z" fill="#000000" p-id="3484"></path><path d="M1024 448h64V512H1024zM1088 448H1152V512h-64z" fill="#FFDE00" p-id="3485"></path><path d="M1152 448h64V512H1152z" fill="#EDA900" p-id="3486"></path><path d="M64 512H128v64H64z" fill="#000000" p-id="3487"></path><path d="M128 512h64v64H128z" fill="#FFDE00" p-id="3488"></path><path d="M192 512H256v64h-64z" fill="#000000" p-id="3489"></path><path d="M256 512h64v64H256z" fill="#ED91DC" p-id="3490"></path><path d="M320 512H384v64h-64z" fill="#B652FF" p-id="3491"></path><path d="M384 512h64v64H384z" fill="#9DCDF4" p-id="3492"></path><path d="M448 512H512v64h-64z" fill="#B652FF" p-id="3493"></path><path d="M512 512h64v64H512zM576 512H640v64h-64z" fill="#EA6BD2" p-id="3494"></path><path d="M640 512h64v64H640zM704 512H768v64h-64zM768 512h64v64H768z" fill="#000000" p-id="3495"></path><path d="M832 512H896v64h-64z" fill="#FFDE00" p-id="3496"></path><path d="M896 512h64v64H896zM960 512H1024v64h-64zM1024 512h64v64H1024z" fill="#EDA900" p-id="3497"></path><path d="M1088 512H1152v64h-64zM0 576h64V640H0z" fill="#000000" p-id="3498"></path><path d="M64 576H128V640H64zM128 576h64V640H128z" fill="#FFDE00" p-id="3499"></path><path d="M192 576H256V640h-64z" fill="#000000" p-id="3500"></path><path d="M256 576h64V640H256z" fill="#B652FF" p-id="3501"></path><path d="M320 576H384V640h-64z" fill="#6BB0EA" p-id="3502"></path><path d="M384 576h64V640H384z" fill="#B652FF" p-id="3503"></path><path d="M448 576H512V640h-64zM512 576h64V640H512zM576 576H640V640h-64z" fill="#000000" p-id="3504"></path><path d="M640 576h64V640H640zM704 576H768V640h-64z" fill="#FFDE00" p-id="3505"></path><path d="M768 576h64V640H768zM832 576H896V640h-64z" fill="#EDA900" p-id="3506"></path><path d="M896 576h64V640H896zM960 576H1024V640h-64zM1024 576h64V640H1024z" fill="#000000" p-id="3507"></path><path d="M1088 576H1152V640h-64z" fill="#7000C3" p-id="3508"></path><path d="M0 640h64v64H0z" fill="#000000" p-id="3509"></path><path d="M64 640H128v64H64zM128 640h64v64H128zM192 640H256v64h-64z" fill="#FFDE00" p-id="3510"></path><path d="M256 640h64v64H256zM320 640H384v64h-64zM384 640h64v64H384z" fill="#000000" p-id="3511"></path><path d="M448 640H512v64h-64zM512 640h64v64H512z" fill="#EDA900" p-id="3512"></path><path d="M576 640H640v64h-64z" fill="#FFDE00" p-id="3513"></path><path d="M640 640h64v64H640z" fill="#488ECA" p-id="3514"></path><path d="M704 640H768v64h-64zM768 640h64v64H768zM832 640H896v64h-64z" fill="#000000" p-id="3515"></path><path d="M896 640h64v64H896z" fill="#C65BB2" p-id="3516"></path><path d="M960 640H1024v64h-64z" fill="#488ECA" p-id="3517"></path><path d="M1024 640h64v64H1024z" fill="#7000C3" p-id="3518"></path><path d="M64 704H128V768H64z" fill="#000000" p-id="3519"></path><path d="M128 704h64V768H128z" fill="#FFDE00" p-id="3520"></path><path d="M192 704H256V768h-64zM256 704h64V768H256zM320 704H384V768h-64zM384 704h64V768H384z" fill="#EDA900" p-id="3521"></path><path d="M384 768h64v64H384z" fill="#000000" p-id="3522"></path><path d="M448 704H512V768h-64z" fill="#EDA900" p-id="3523"></path><path d="M448 768H512v64h-64zM512 704h64V768H512z" fill="#000000" p-id="3524"></path><path d="M512 768h64v64H512z" fill="#C65BB2" p-id="3525"></path><path d="M576 704H640V768h-64z" fill="#000000" p-id="3526"></path><path d="M576 768H640v64h-64z" fill="#C65BB2" p-id="3527"></path><path d="M640 704h64V768H640z" fill="#000000" p-id="3528"></path><path d="M640 768h64v64H640z" fill="#488ECA" p-id="3529"></path><path d="M704 704H768V768h-64z" fill="#B652FF" p-id="3530"></path><path d="M704 768H768v64h-64zM768 704h64V768H768zM768 768h64v64H768z" fill="#488ECA" p-id="3531"></path><path d="M832 704H896V768h-64z" fill="#C65BB2" p-id="3532"></path><path d="M832 768H896v64h-64z" fill="#7000C3" p-id="3533"></path><path d="M896 704h64V768H896z" fill="#B652FF" p-id="3534"></path><path d="M960 704H1024V768h-64zM1024 704h64V768H1024zM896 768h64v64H896zM960 768H1024v64h-64z" fill="#7000C3" p-id="3535"></path><path d="M640 0h64v64H640z" fill="#000000" p-id="3536"></path><path d="M640 64h64V128H640z" fill="#E0B6FF" p-id="3537"></path><path d="M1088 192H1152V256h-64zM192 768H256v64h-64zM641.882353 960h64V1024h-64z" fill="#000000" p-id="3538"></path><path d="M640 896h64v64H640z" fill="#7000C3" p-id="3539"></path><path d="M640 832h64V896H640z" fill="#C65BB2" p-id="3540"></path><path d="M512 64h64V128H512zM704 0H768v64h-64z" fill="#000000" p-id="3541"></path><path d="M704 64H768V128h-64z" fill="#CA82FF" p-id="3542"></path><path d="M832 64H896V128h-64zM1152 192h64V256H1152zM1216 448H1280V512h-64zM256 768h64v64H256zM705.882353 960h64V1024h-64z" fill="#000000" p-id="3543"></path><path d="M704 896H768v64h-64z" fill="#7000C3" p-id="3544"></path><path d="M704 832H768V896h-64z" fill="#488ECA" p-id="3545"></path><path d="M832 896H896v64h-64z" fill="#000000" p-id="3546"></path><path d="M832 832H896V896h-64z" fill="#7000C3" p-id="3547"></path><path d="M448 896H512v64h-64z" fill="#000000" p-id="3548"></path><path d="M448 832H512V896h-64z" fill="#7000C3" p-id="3549"></path><path d="M768 0h64v64H768z" fill="#000000" p-id="3550"></path><path d="M768 64h64V128H768z" fill="#CA82FF" p-id="3551"></path><path d="M896 64h64V128H896zM960 128H1024v64h-64zM1216 192H1280V256h-64zM1280 448h64V512H1280zM320 768H384v64h-64zM769.882353 960h64V1024h-64z" fill="#000000" p-id="3552"></path><path d="M768 896h64v64H768zM768 832h64V896H768z" fill="#7000C3" p-id="3553"></path><path d="M896 896h64v64H896z" fill="#000000" p-id="3554"></path><path d="M896 832h64V896H896z" fill="#7000C3" p-id="3555"></path><path d="M960 832H1024V896h-64zM1024 768h64v64H1024zM512 896h64v64H512z" fill="#000000" p-id="3556"></path><path d="M512 832h64V896H512z" fill="#B652FF" p-id="3557"></path><path d="M384 832h64V896H384z" fill="#000000" p-id="3558"></path></svg>
